X: 339
T: Missa Ecce ego Joannes Agnus I
C: Giovanni Perluigi da Palestrina
L: 1/4
M: 4/2
N: Derived from Agnus_I_21.krn
V: 1 clef=treble
V: 2 clef=treble
V: 3 clef=treble-8
V: 4 clef=treble-8
V: 5 clef=bass
V: 6 clef=bass
K: C
[V:1] d8 | 
[V:2] A8 | 
[V:3] ^f8 | 
[V:4] z8 | 
[V:5] D8 | 
[V:6] z8 | 
[V:1] d4d4 | 
[V:2] B4A3B | 
[V:3] g6^f2 | 
[V:4] z8 | 
[V:5] G,4D4 | 
[V:6] z8 | 
[V:1] e6d2 | 
[V:2] cBAGAGG2- | 
[V:3] gfedc2d2 | 
[V:4] z8 | 
[V:5] C6B,2 | 
[V:6] z8 | 
[V:1] c8 | 
[V:2] G2^FEF4 | 
[V:3] edcBc4 | 
[V:4] z8 | 
[V:5] A,8 | 
[V:6] z8 | 
[V:1] B2GABcd2 | 
[V:2] G4G4 | 
[V:3] dcBAGAB2 | 
[V:4] d8 | 
[V:5] G,4z2G,2- | 
[V:6] G,8 | 
[V:1] c2c2d4 | 
[V:2] G8 | 
[V:3] c4z4 | 
[V:4] e4d3e | 
[V:5] G,2C2>B,2B,2 | 
[V:6] C,4G,4 | 
[V:1] z4z2e2 | 
[V:2] A6G2 | 
[V:3] z8 | 
[V:4] fedcdcc2- | 
[V:5] CB,A,G,F,2G,2 | 
[V:6] F,6E,2 | 
[V:1] f4d4 | 
[V:2] F8 | 
[V:3] z8 | 
[V:4] c2BAB4 | 
[V:5] A,G,F,E,F,4 | 
[V:6] D,8 | 
[V:1] e4z2g2- | 
[V:2] E2>D2CDEF | 
[V:3] g8 | 
[V:4] c2>d2e4 | 
[V:5] G,2C2>B,2CD | 
[V:6] C,8- | 
[V:1] g2e2>d2cB | 
[V:2] G2c2B2B2- | 
[V:3] c4g4 | 
[V:4] z2g2>f2ed | 
[V:5] E4E4 | 
[V:6] C,4E,4 | 
[V:1] A2FGABc2- | 
[V:2] BBAGF2G2 | 
[V:3] f6e2 | 
[V:4] c2>B2A2G2- | 
[V:5] z2A,2C4 | 
[V:6] F,6C,2 | 
[V:1] c2BAB4 | 
[V:2] G8- | 
[V:3] d8 | 
[V:4] G2g2>f2d2 | 
[V:5] D2G,2>A,2B,2 | 
[V:6] G,8 | 
[V:1] c4z2e2 | 
[V:2] G4z2c2 | 
[V:3] c8 | 
[V:4] e4z2g2 | 
[V:5] G,4z2C2 | 
[V:6] C,8 | 
[V:1] e4d2g2 | 
[V:2] c4B2G2 | 
[V:3] z8 | 
[V:4] g4g2e2 | 
[V:5] C4G,4 | 
[V:6] z8 | 
[V:1] f2d2edcB | 
[V:2] A2B2cBAG | 
[V:3] z8 | 
[V:4] d2g2c4- | 
[V:5] z8 | 
[V:6] z8 | 
[V:1] cBBA/ G/A4 | 
[V:2] AGG4^F2 | 
[V:3] z8 | 
[V:4] c2e2d4 | 
[V:5] z8 | 
[V:6] z8 | 
[V:1] G2B2d4 | 
[V:2] G4z4 | 
[V:3] z2g2g4- | 
[V:4] z2d2d4 | 
[V:5] z2B,2B,4 | 
[V:6] z2G,2G,4 | 
[V:1] c4z4 | 
[V:2] z8 | 
[V:3] g4G4 | 
[V:4] e2g2g2g2 | 
[V:5] C2E2D2B,2 | 
[V:6] C,2C2B,2G,2 | 
[V:1] z4z2e2 | 
[V:2] z8 | 
[V:3] z4z2g2 | 
[V:4] fedcdcc2- | 
[V:5] CB,A,G,A,G,C2 | 
[V:6] A,G,F,E,F,E,E,D,/ C,/ | 
[V:1] f2f2e3d | 
[V:2] z4G4 | 
[V:3] f2d2edcB | 
[V:4] c2B2c2e2- | 
[V:5] F,4G,4 | 
[V:6] D,4C,4 | 
[V:1] eddc/ B/c2A2 | 
[V:2] G4C2c2 | 
[V:3] cBBA/ G/A4 | 
[V:4] efg4^f2 | 
[V:5] z8 | 
[V:6] z8 | 
[V:1] d2>e2fedc | 
[V:2] B2G2AGFE | 
[V:3] G2B2cBAG | 
[V:4] g4z2a2 | 
[V:5] z8 | 
[V:6] z2G,2F,4- | 
[V:1] dcc4B2 | 
[V:2] FEDCD4 | 
[V:3] A2A2B2G2- | 
[V:4] a2f2g4 | 
[V:5] z8 | 
[V:6] F,2A,2G,4 | 
[V:1] c2e4d2 | 
[V:2] C4z4 | 
[V:3] G2g4g2 | 
[V:4] e4c2d2 | 
[V:5] z2C4B,2 | 
[V:6] C,4z4 | 
[V:1] c2B2c3B | 
[V:2] z8 | 
[V:3] g2>f2edc2- | 
[V:4] e2d2cBAB | 
[V:5] C2G,2A,3G, | 
[V:6] z8 | 
[V:1] A2G4^F2 | 
[V:2] z8 | 
[V:3] c2B2c4 | 
[V:4] cde4A2 | 
[V:5] F,2G,2A,4 | 
[V:6] z4z2C2- | 
[V:1] G2d2c2B2 | 
[V:2] z8 | 
[V:3] d2g4g2 | 
[V:4] z2d2e2B2 | 
[V:5] G,4z4 | 
[V:6] C2B,2C2G,2 | 
[V:1] A4z4 | 
[V:2] z2c4B2 | 
[V:3] e2a4gf | 
[V:4] c4d4 | 
[V:5] z8 | 
[V:6] A,2>G,2F,2G,2 | 
[V:1] z8 | 
[V:2] c2G2A4 | 
[V:3] e4A3B | 
[V:4] c4z2f2- | 
[V:5] z8 | 
[V:6] A,2E,2F,4 | 
[V:1] z2e4d2 | 
[V:2] G8- | 
[V:3] c4G4 | 
[V:4] f2e2g3f | 
[V:5] z2C4B,2 | 
[V:6] C,2C,D,E,F,G,2 | 
[V:1] e2g2f2e2 | 
[V:2] G4z4 | 
[V:3] z2c4A2 | 
[V:4] e2e2c4 | 
[V:5] C2G,2A,3G, | 
[V:6] C,4z2C2- | 
[V:1] d4e4- | 
[V:2] z8 | 
[V:3] a2g2>f2ed | 
[V:4] d4g4 | 
[V:5] F,2G,2C,4 | 
[V:6] C2B,2C2G,2 | 
[V:1] e4z2g2- | 
[V:2] z2c4B2 | 
[V:3] c4d4 | 
[V:4] e4a2gf | 
[V:5] z8 | 
[V:6] A,2>G,2F,2G,2 | 
[V:1] gfedc2d2 | 
[V:2] c2G2A2GF | 
[V:3] c4z4 | 
[V:4] ede4d2 | 
[V:5] z2C4B,2 | 
[V:6] C,4z4 | 
[V:1] e2B2c4 | 
[V:2] EFG4^F2 | 
[V:3] z8 | 
[V:4] g4c4 | 
[V:5] C2G,2A,4 | 
[V:6] z8 | 
[V:1] B2>c2d4- | 
[V:2] G2G2A2B2 | 
[V:3] z2g2^f2g2 | 
[V:4] d2e2d3c | 
[V:5] G,4z4 | 
[V:6] z4z2G,2- | 
[V:1] d4z2d2- | 
[V:2] G2A2B2A2- | 
[V:3] d4d3c | 
[V:4] B2A2G2^F2 | 
[V:5] z8 | 
[V:6] G,2^F,2G,2D,2 | 
[V:1] d2^c2d2A2 | 
[V:2] AGG4^F2 | 
[V:3] B2AGA4 | 
[V:4] G4z2d2- | 
[V:5] z8 | 
[V:6] E,4D,4 | 
[V:1] B2c2d4 | 
[V:2] G8- | 
[V:3] G8- | 
[V:4] d2e2d4 | 
[V:5] z2C4B,2 | 
[V:6] G,2C,2G,2G,2 | 
[V:1] e2>d2c4 | 
[V:2] G4-G4- | 
[V:3] G4-G4- | 
[V:4] c4e4 | 
[V:5] C2G,2C4 | 
[V:6] C,8 | 
[V:1] d8 |]  
[V:2] G8 |]  
[V:3] G8 |]  
[V:4] d8 |]  
[V:5] B,8 |]  
[V:6] G,8 |]  

